dist/svg/spam.svg

<!-- Generated by Trend Micro Style Portal -->
<svg version="1.1" xmlns="http://www.w3.org/2000/svg" width="16" height="16" viewBox="0 0 16 16">
  <title>spam</title>
  <path fill="rgb(34,34,34)" d="M14.98 0h-13.96c-0.56 0-1.020 0.46-1.020 1.020v11.97c0 0.56 0.46 1.020 1.020 1.020h13.96c0.56 0 1.020-0.46 1.020-1.020v-11.97c0-0.56-0.46-1.020-1.020-1.020zM7.94 6.75l-5.94-4.5h12l-6.060 4.5z"></path>
</svg>

<svg width="16" height="16" viewBox="0 0 16 16" fill="rgb(34, 34, 34)" xmlns="http://www.w3.org/2000/svg"><title>spam</title><path d="M14.98 0H1.02C0.46 0 0 0.46 0 1.02V12.99C0 13.55 0.46 14.01 1.02 14.01H14.98C15.54 14.01 16 13.55 16 12.99V1.02C16 0.46 15.54 0 14.98 0ZM7.94 6.75L2 2.25H14L7.94 6.75Z" fill="rgb(34, 34, 34)" fill-opacity="1.00"/></svg>
